X: 2
T: Poor But Happy At 53
R: reel
M: 4/4
L: 1/8
K: Emin
|: D |EFGA BE ~E2 | BcAc BE ~E2 | DEFG AFDF | AAGB AGFD |
EFGA Beed | edBA BBGA | BEGB ADFA | GEDF ~E3 :|
|: e |edBA BBef | gfed BA B/c/d | edef gbaf | gefd ~e3 f |
eBBA BGEG | BGAF GEGA | BEGB ADFA | GEDF ~E3 :|


Tune 314	Setting 28896

